polaris-icons/icons/new-icons/LegalMajor.svg

<svg width="20" height="20" viewBox="0 0 20 20" fill="none" xmlns="http://www.w3.org/2000/svg">
<path fill-rule="evenodd" clip-rule="evenodd" d="M8.75 16.25C8.75 16.6642 8.41421 17 8 17H7.75C6.23122 17 5 15.7688 5 14.25V5C5 4.72386 4.77614 4.5 4.5 4.5C4.08579 4.5 3.75 4.16421 3.75 3.75C3.75 3.33579 4.08579 3 4.5 3H13C14.1046 3 15 3.89543 15 5V13.25C15 13.6642 14.6642 14 14.25 14C13.8358 14 13.5 13.6642 13.5 13.25V5C13.5 4.72386 13.2761 4.5 13 4.5H6.43699C6.47812 4.65981 6.5 4.82735 6.5 5V14.25C6.5 14.9403 7.05964 15.5 7.75 15.5H8C8.41421 15.5 8.75 15.8358 8.75 16.25Z" fill="#4A4A4A"/>
<path fill-rule="evenodd" clip-rule="evenodd" d="M8 6.74999C8 6.33578 8.33579 5.99999 8.75 5.99999H11.25C11.6642 5.99999 12 6.33578 12 6.74999C12 7.16421 11.6642 7.49999 11.25 7.49999H8.75C8.33579 7.49999 8 7.16421 8 6.74999Z" fill="#4A4A4A"/>
<path fill-rule="evenodd" clip-rule="evenodd" d="M8 9.74999C8 9.33578 8.33579 8.99999 8.75 8.99999H11.25C11.6642 8.99999 12 9.33578 12 9.74999C12 10.1642 11.6642 10.5 11.25 10.5H8.75C8.33579 10.5 8 10.1642 8 9.74999Z" fill="#4A4A4A"/>
<path fill-rule="evenodd" clip-rule="evenodd" d="M2.5 4.99999C2.5 3.89542 3.39543 3 4.5 3C5.60457 3 6.5 3.89543 6.5 5V8.74999C6.5 9.16421 6.16421 9.49999 5.75 9.49999H3.25C2.83579 9.49999 2.5 9.16421 2.5 8.74999V4.99999ZM4.5 4.5C4.22386 4.5 4 4.72385 4 4.99999V7.99999H5V5C5 4.72386 4.77614 4.5 4.5 4.5Z" fill="#4A4A4A"/>
<path fill-rule="evenodd" clip-rule="evenodd" d="M9 13.25C9 12.8358 9.33579 12.5 9.75 12.5H17C17.4142 12.5 17.75 12.8358 17.75 13.25V14.75C17.75 15.9926 16.7426 17 15.5 17H7.75C7.33579 17 7 16.6642 7 16.25C7 15.8358 7.33579 15.5 7.75 15.5C8.44036 15.5 9 14.9403 9 14.25V13.25ZM10.2001 15.5H15.5C15.9142 15.5 16.25 15.1642 16.25 14.75V14H10.5V14.25C10.5 14.7001 10.3919 15.125 10.2001 15.5Z" fill="#4A4A4A"/>
</svg>

<svg viewBox="0 0 20 20" xmlns="http://www.w3.org/2000/svg"><path fill-rule="evenodd" d="M8.75 16.25a.75.75 0 0 1-.75.75h-.25a2.75 2.75 0 0 1-2.75-2.75v-9.25a.5.5 0 0 0-.5-.5.75.75 0 0 1 0-1.5h8.5a2 2 0 0 1 2 2v8.25a.75.75 0 0 1-1.5 0v-8.25a.5.5 0 0 0-.5-.5h-6.563c.041.16.063.327.063.5v9.25c0 .69.56 1.25 1.25 1.25h.25a.75.75 0 0 1 .75.75Z" fill="#5C5F62"/><path fill-rule="evenodd" d="M8 6.75a.75.75 0 0 1 .75-.75h2.5a.75.75 0 0 1 0 1.5h-2.5a.75.75 0 0 1-.75-.75Z" fill="#5C5F62"/><path fill-rule="evenodd" d="M8 9.75a.75.75 0 0 1 .75-.75h2.5a.75.75 0 0 1 0 1.5h-2.5a.75.75 0 0 1-.75-.75Z" fill="#5C5F62"/><path fill-rule="evenodd" d="M2.5 5a2 2 0 1 1 4 0v3.75a.75.75 0 0 1-.75.75h-2.5a.75.75 0 0 1-.75-.75v-3.75Zm2-.5a.5.5 0 0 0-.5.5v3h1v-3a.5.5 0 0 0-.5-.5Z" fill="#5C5F62"/><path fill-rule="evenodd" d="M9 13.25a.75.75 0 0 1 .75-.75h7.25a.75.75 0 0 1 .75.75v1.5a2.25 2.25 0 0 1-2.25 2.25h-7.75a.75.75 0 0 1 0-1.5c.69 0 1.25-.56 1.25-1.25v-1Zm1.2 2.25h5.3a.75.75 0 0 0 .75-.75v-.75h-5.75v.25c0 .45-.108.875-.3 1.25Z" fill="#5C5F62"/></svg>
